X: 523
T: Zai liushu
%%abc-version 2.0
%%abcx-abcm2ps-target-version 5.9.1 (29 Sep 2008)
%%abc-creator hum2abc beta
%%abcx-conversion-date 2013/10/02 07:52:30
%%abc-edited-by Helmut Schaffrath
%%humdrum-veritas 3632071928
%%humdrum-veritas-data 3780304962
%%continueall 1
%%barnumbers 0
L: 1/8
M: 4/4
K: F
c2A2f2g2 [I:setbarnb 1]| 
d c A cG4 | 
G G/ F/ D FG4 | 
A cG2D D/ F/G2 | 
f2d fc2A2 | 
G2A FC4 | 
G GC2G GC2 | 
G dc2c DF2 | 
G A/ A/ F DC4 |]  



